X: 1373
T: Daisy Sutton's Set Tune
B: australian traditional tunes wiki
M:2/4
L:1/8
R: Reel
Q: 1/4=100
K:G
V:1 
|:"G"BG BG|B/d/c/B/"D7"A2|AF AF|A/c/B/A/"G"G2:|
|:"G"dd d/e/d/c/|BB B/c/B/A/|GB dg|"D7"f2e2|
""cc c/d/c/B/|"D7"AA A/B/A/G/|1FD "G"GB|""d2d2:|2"D7"FD FA|"G"G2G2||
% abcbook-tune_id 6342d53ab464d4ebd9acc81e


% abcbook-boost 0
% abcbook-tablature 
% abcbook-transpose 
% abcbook-lastupdated 1665324361694
% abcbook-soundfonts 
% abcbook-repeats 1
% NFF Book 2019

